X: 1
T: Turkey in the Pea Patch
R: reel
M: C|
L: 1/8
K: D
[|"D"A2F2    D3F  | "D"ABAG F2D2 | "A"E2C2 A,3F  |    AcBA    FA3  \
| "D"A2F2    D4   | "D"ABAG F2DF | "A"E2C2 A,CEG | "D"FDEF    D4   |
| "D"A2F2    D4   | "D"dBAG F2D2 | "A"E2C2 A,2E2 |    AcBA    F2A2 \
| "D"A2F2    A2F2 | "D"ABAG F2DF | "A"E2C2 E2EG  | "D"FDEF    D4  |]
|:"D"d2fd "G"BcdB | "D"AdBA FGA2 | "A"Acdf edef  | "G"gfed "A"cABc \
| "D"defd "G"BcdB | "D"ABAG F2DF | "A"E2C2 A,2EG | "D"FDEF    D4  :|
